src/dark/hiso font dark_z.svg

<svg xmlns="http://www.w3.org/2000/svg" width="90" height="126" viewBox="0 0 90 126"><path fill="#000101" d="M72 27l-36-18-36 18 24 12-24 60 36 18 36-18-24-12 24-60zm-65.29 0l29.29-14.65 29.29 14.65-29.29 14.65-29.29-14.65zm58.58 72l-27.61 13.81 9.2-23.02 18.41 9.21zm-30.86 13.86l-30.62-15.31 22.88-57.21 9.31 4.66 31.96-15.98-33.53 83.84z"/></svg>

<svg xmlns="http://www.w3.org/2000/svg" width="90" height="126"><path fill="#000101" d="M72 27L36 9 0 27l24 12L0 99l36 18 36-18-24-12 24-60zM6.71 27L36 12.35 65.29 27 36 41.65 6.71 27zm58.58 72l-27.61 13.81 9.2-23.02L65.29 99zm-30.86 13.86L3.81 97.55l22.88-57.21L36 45l31.96-15.98-33.53 83.84z"/></svg>
